X: 38004
T: Speed The Plough
R: reel
M: 4/4
K: Dmajor
d3A BAFA|dAFA GFEG|FAAA AGFG|ABde feef|
d3A BAFA|dAFA GFEG|FAAA AGFG|ABde fdef:|
faaf g2eg|fedB ABde|faab afdB|ABde feee|
faaf g2eg|fedf edAF|GABG FAdB|ABde fdd2:|

